X:1
T:Sugar Cane
T:“SUGAR  CANE”
T:By SCOTT JOPLIN Composer of “Maple Leaf Rag”
T:A Ragtime Two Step
T: NOTE ‒ Do not play this piece fast. It is never right  to  play Ragtime fast. Composer.
T:Public Domain
T:Public Domain
T:Public Domain
T:Public Domain
C:Scott Joplin
Z:Public Domain
%%score { ( 1 3 ) | 2 }
L:1/8
Q:1/4=72
M:2/4
K:Bb
V:1 treble nm="Piano"
V:3 treble 
V:2 bass 
V:1
"^Slow March Tempo" z |:!mf![Q:1/4=100] z/ (d/F/B/ d/f/b/d'/) | (f'/g'/f'/e'/ c'/a/g/f/) | %3
 z/ (d/F/B/ d/f/b/d'/) | (f'/g'/f'/e'/ c'/a/g/f/) | E(_G/E/ DF) | E(_G/E/ DF,) | %7
 z/ (G,/^C/G/) z/ (G/^c/g/) | z/ (g/^c'/=e'/) [gc'g']z/[fbd'f']/- | %9
 [fbd'f']/[bd']/[gg']/b/ e'/[_g_g'][fbd'f']/- | [fbd'f']/[bd']/[=e=e']/b/ d'/[ff'][af']/- | %11
 [af']/_e'/[af']/c'/ e'/[af'][bd'b']/- | [bd'b'][GBg] [FBf][=EB=e]/[FBdf]/- | %13
 [FBdf]/[Bd]/[Gg]/B/ e/[_G_g][FBdf]/- | [FBdf]/[Bd]/[=E=e]/B/ d<[Ff] |1 %15
 z/ (e/[Af]/c/ e/)[Af][Bdb]/- | [Bdb]2- [Bdb] z :|2 z/ (e/[Af]/c/) e/[Af][Bdb]/- | %18
 [Bdb] !^!F!^!B!^!^G |: (A/e/a/g/-) g/(c/e/c'/) | (e/a/e'/d'/- d'/a/c'/)[aa']/ | %21
 [bd'b'][gbd'g'] [fbd'f'][^c^c']/[dd']/- | [dd']/[Ff]/[^F^f]/[Gg]/- [Gg]/[Bd]/[=F=f] | %23
 [ae'a'][ge'g'] [fe'f'][dd']/[ee']/- | [ee']/[Ff]/[^F^f]/[Gg]/- [Gg]/[Ae]/[=F=f] | %25
 [bd'b'][gbd'g'] [fbd'f'][^c^c']/[dd']/- | [dd']/[Ff]/[^F^f]/[Gg]/- [Gg]/[Bd]/[=F=f] | %27
 (A/e/a/g/-) g/(c/e/c'/) | (e/a/e'/d'/-) d'/a/c'/[aa']/ | [bd'b'][gbd'g'] [fbd'f'][^c^c']/[dd']/- | %30
 [dd']/[Ff]/[^F^f]/[Gg]/- [Gg]/[Bd]/[=F=f] |!mp! d/cB/- (B/c/B) | d/cB/- (B/c/B) | %33
!<(! B/cd/- (d/g/f)!<)! |1 [=EB][_EAc] [DB]!^!^G :|2 [=EB][_EAc] [DB] z || z/ (d/F/B/ d/f/b/d'/) | %37
 (f'/g'/f'/e'/ c'/a/g/f/) | z/ (d/F/B/ d/f/b/d'/) | (f'/g'/f'/e'/ c'/a/g/f/) | E(_G/E/ DF) | %41
 E(_G/E/ DF,) | z/ (G,/^C/G/) z/ (G/^c/g/) | z/ (g/^c'/=e'/) [gc'g']z/[fbd'f']/- | %44
 [fbd'f']/[bd']/[gg']/b/ e'/[_g_g'][fbd'f']/- | [fbd'f']/[bd']/[=e=e']/b/ d'/[ff'][af']/- | %46
 [af']/_e'/[af']/c'/ e'/[af'][bd'b']/- | [bd'b'][GBg] [FBf][=EB=e]/[FBdf]/- | %48
 [FBdf]/[Bd]/[Gg]/B/ e/[_G_g][FBdf]/- | [FBdf]/[Bd]/[=E=e]/B/ d<[Ff] | %50
 z/ _e/[Af]/c/ e/[Af][Bdb]/- | [Bdb]2 [Bdb] z |:[K:Eb]!mp! [db]>[da]- (a/g/f) | %53
 [db]>[da]- (a/g/f/^f/) | g/c'/g/c'/ g/c'/g/c'/ | (c'/f/^f/g/-) [eg][^cb] | [db]>[da]- (a/g/f) | %57
 [db]>[da]- (a/g/f/^f/) | g/c'/g/c'/ g/c'/g/c'/ | c'>b- [gb][=f=b] | [=ec']>[e_b]- (b/a/g) | %61
 [=ec']>[eb]- (b/a/g/c'/) | z/ c'/[ff']/a/ c'/[gg']a/ | [ff']/a/c'/[gg']/- [gg']/[ac']/[ff'] | %64
 ([^f^f'][ee'][cc'][=A=a]) | ([Begb]>e) (g<[Bb]) |1 ([Bdfb]>d) f/[Bdb][GBe]/- | [GBe]3 [^cb] :|2 %68
 ([Bdfb]>d) f/[Bdb][GBe]/- | [GBe]2- [GBe] z |:[K:Bb]!mf! z/ [Be]/[Gg]/B/ e/[Gg][Bb]/- | %71
 [Bb]/[eg]/[cc'] [Beb][cec']/[dfbd']/- | [dfbd'][FBdf] [=E=e]/[FBdf][FBdf]/- | [FBdf]3 [dfd'] | %74
 [cec'][FAef] [=E=e]/[FA_ef][FAef]/- | [FAef]3 [ege'] | [dfd'][FBdf] [=E=e]/[FBdf][FBdf]/- | %77
 [FBdf]4 | z/ [Be]/[Gg]/B/ e/[Gg][Bb]/- | [Bb]/[eg]/[cc'] [Be_gb][cegc']/[dfbd']/- | %80
 [dfbd'][FBdf] [=E=e]/[FBdf][FBdf]/- | [FBdf]2 [Fc]2 |!mp! d/cB/- (B/c/B) | d/cB/- (B/c/B) | %84
!<(! B/cd/- (d/g/f)!<)! |1 [=EB][_EAc] [DB] z :|2 [=EB][_EAc] [DB]!fine! |] %87
V:2
 [F,,F,] |: [B,,B,][F,B,D] [F,F][D,D] | [C,C][F,A,E] [F,A,E][F,,F,] | [B,,B,][F,B,D] [F,F][D,D] | %4
 [C,C][F,A,E] [F,A,E][F,,F,] | E,(_G,/E,/ D,F,) | E,(_G,/E,/ D,F,,) | (=E,,B,, =E,B,) | %8
[K:treble][K:treble] (=EB) =e z | [DFB][EGB] [E_GB][EGB] | [DFB][^CGB] [DFB][DFB] | %11
 [CFA][CFA] [CFA][CFA] | [DFB][K:bass][E,E] [D,D][^C,^C] | [D,F,B,][E,G,B,] [E,_G,B,][E,G,B,] | %14
 [D,F,B,][^C,G,B,] [D,F,B,][F,B,D] |1 [C,C][F,A,E] [F,,F,][F,A,E] | %16
 [B,,B,][D,,D,][G,,G,][F,,F,] :|2 [C,C][F,A,E] [F,,F,][F,A,E] | [B,,B,] z !^![D,D]!^![=B,,=B,] |: %19
!f! [C,C][F,A,E] [F,,F,][F,A,E] | [C,C][F,A,E] [F,,F,][F,A,E] | [B,,B,][F,B,D] [F,,F,][F,B,D] | %22
 [B,,B,][F,B,D] [F,,F,][F,B,D] | [C,C][F,A,E] [F,,F,][F,A,E] | [C,C][F,A,E] [F,,F,][F,A,E] | %25
 [B,,B,][F,B,D] [F,,F,][F,B,D] | [B,,B,][F,B,D] [F,,F,][F,B,D] | [C,C][F,A,E] [F,,F,][F,A,E] | %28
 [C,C][F,A,E] [F,,F,][F,A,E] | [B,,B,][F,B,D] [F,,F,][F,B,D] | [B,,B,][F,B,D] [F,,F,][F,B,D] | %31
 [_A,B,DF][A,B,DF] [A,B,DF][A,B,DF] | [G,B,E][G,B,E] [_G,B,E][G,B,E] | %33
 [F,B,D][F,B,D] [F,B,D][F,B,D] |1 [G,,G,][F,,F,] [B,,B,]!^![=B,,=B,] :|2 %35
 [G,,G,][F,,F,] [B,,B,][F,,F,] ||!mf! [B,,B,][F,B,D] [F,F][D,D] | [C,C][F,A,E] [F,A,E][F,,F,] | %38
 [B,,B,][F,B,D] [F,F][D,D] | [C,C][F,A,E] [F,A,E][F,,F,] | E,(_G,/E,/ D,F,) | E,(_G,/E,/ D,F,,) | %42
 (=E,,B,, =E,B,) |[K:treble] (=EB =e) z | [DFB][EGB] [E_GB][EGB] | [DFB][^CGB] [DFB][DFB] | %46
 [CFA][CFA] [CFA][CFA] | [DFB][K:bass][E,E] [D,D][^C,^C] | [D,F,B,][E,G,B,] [E,_G,B,][E,G,B,] | %49
 [D,F,B,][^C,G,B,] [D,F,B,][F,B,D] | [C,C][F,A,E] [F,,F,][F,A,E] | [B,,B,]F, B,, z |: %52
[K:Eb] [F,,F,][B,DA] [B,,,B,,][B,DA] | [F,,F,][B,DA] [B,,,B,,][B,DA] | %54
 [E,,E,][B,EG] [B,,,B,,][B,EG] | [E,,E,][B,EG] [B,EG][=E,,=E,] | [F,,F,][B,DA] [B,,,B,,][B,DA] | %57
 [F,,F,][B,DA] [B,,,B,,][B,DA] | [E,,E,][B,EG] [B,,,B,,][B,EG] | [E,,E,][B,EG] [E,,E,][_D,,_D,] | %60
 [C,,C,][B,C=E] [=E,,=E,][B,CE] | [G,,G,][B,C=E] [C,,C,][B,CE] | [F,,F,][A,CF] [A,,A,][A,CF] | %63
 [F,,F,][A,CF] [A,,A,][A,CF] | ([=A,,=A,][C,C][E,E][^F,^F]) | ([G,G][E,E][B,,B,][G,,G,]) |1 %66
 [F,,F,][A,B,D] [B,,,B,,][A,B,D] | [E,,E,][G,,G,][F,,F,][=E,,=E,] :|2 %68
 [F,,F,][A,B,D] [B,,,B,,][A,B,D] | [E,,E,]B,,E,,!^![B,,,B,,] |: %70
[K:Bb] [E,,E,][G,B,E] [B,,,B,,][G,B,E] | [E,,E,][G,B,E] [G,,G,][_G,,_G,] | %72
 [F,,F,][F,B,D] [B,,B,][F,B,D] | [D,D][F,,F,][G,,G,][^G,,^G,] | [A,,A,][F,A,E] [F,,F,][F,A,_E] | %75
 [C,C][F,,F,][G,,G,][A,,A,] | [B,,B,][F,B,D] [F,,F,][F,B,D] | [B,,B,][_A,,_A,][G,,G,][F,,F,] | %78
 [E,,E,][G,B,E] [B,,,B,,][G,B,E] | [G,,G,][G,B,E] [E,,E,][_G,B,E] | B,,[F,B,D] D,[F,B,D] | %81
 [F,,F,][F,B,D] [F,A,E]2 | [_A,B,DF][A,B,DF] [A,B,DF][A,B,DF] | [G,B,E][G,B,E] [_G,B,E][G,B,E] | %84
 [F,B,D][F,B,D] [F,B,D][F,B,D] |1 [G,,G,][F,,F,][B,,B,]!^![B,,,B,,] :|2 [G,,G,][F,,F,] [B,,B,] |] %87
V:3
 x |: x4 | x4 | x4 | x4 | x4 | x4 | x4 | x4 | x4 | x4 | x4 | x4 | x4 | x4 |1 x4 | x4 :|2 x4 | x4 |: %19
 x4 | x4 | x4 | x4 | x4 | x4 | x4 | x4 | x4 | x4 | x4 | x4 | x4 | x4 | x4 |1 x4 :|2 x4 || x4 | x4 | %38
 x4 | x4 | x4 | x4 | x4 | x4 | x4 | x4 | x4 | x4 | x4 | x4 | x4 | x4 |:[K:Eb] x3/2 x/ d2 | %53
 x3/2 x/ d2 | (edcd) | e>e- x x | x3/2 x/ d2 | x3/2 x/ d2 | (edcd) | (e/f/^f/g/-) x x | %60
 x3/2 x/ e2 | x3/2 x/ e2 | x4 | x4 | x4 | x4 |1 x4 | x4 :|2 x4 | x4 |:[K:Bb] x4 | x4 | x4 | x4 | %74
 x4 | x4 | x4 | x4 | x4 | x4 | x4 | x4 | x4 | x4 | x4 |1 x4 :|2 x3 |] %87

